Papirus/48x48/apps/pulseeffects.svg

<svg xmlns="http://www.w3.org/2000/svg" width="48" height="48" version="1">
 <rect width="40" height="40" x="-45" y="-44" rx="2" ry="2" transform="matrix(0,-1,-1,0,0,0)" style="opacity:0.2"/>
 <rect width="40" height="40" x="-44" y="-44" rx="2" ry="2" transform="matrix(0,-1,-1,0,0,0)" style="fill:#5e5e5e"/>
 <path fill="#fff" d="m6 4c-1.108 0-2 0.892-2 2v1c0-1.108 0.892-2 2-2h36c1.108 0 2 0.892 2 2v-1c0-1.108-0.892-2-2-2h-36z" style="opacity:0.1"/>
 <path opacity=".3" d="m14 13c-1.108 0-2 0.892-2 2v20c0 1.108 0.892 2 2 2s2-0.892 2-2v-20c0-1.108-0.892-2-2-2zm10 0c-1.108 0-2 0.892-2 2v20c0 1.108 0.892 2 2 2s2-0.892 2-2v-20c0-1.108-0.892-2-2-2zm10 0c-1.108 0-2 0.892-2 2v20c0 1.108 0.892 2 2 2s2-0.892 2-2v-20c0-1.108-0.892-2-2-2z"/>
 <path d="M 14,22 C 12.892,22 12,22.892 12,24 V 35 C 12,36.108 12.892,37 14,37 15.108,37 16,36.108 16,35 V 24 C 16,22.892 15.108,22 14,22 Z M 24,30 C 22.892,30 22,30.892 22,32 V 35 C 22,36.108 22.892,37 24,37 25.108,37 26,36.108 26,35 V 32 C 26,30.892 25.108,30 24,30 Z M 34,24.464 C 32.892,24.464 32,25.356 32,26.464 V 35 C 32,36.108 32.892,37 34,37 35.108,37 36,36.108 36,35 V 26.464 C 36,25.356 35.108,24.464 34,24.464 Z" style="fill:#dca200"/>
 <path opacity=".2" d="m18 22a4 4 0 0 1 -4 4 4 4 0 0 1 -4 -4 4 4 0 0 1 4 -4 4 4 0 0 1 4 4z"/>
 <path d="m18 21a4 4 0 0 1 -4 4 4 4 0 0 1 -4 -4 4 4 0 0 1 4 -4 4 4 0 0 1 4 4z" style="fill:#fec006"/>
 <path opacity=".2" d="m28 30a4 4 0 0 1 -4 4 4 4 0 0 1 -4 -4 4 4 0 0 1 4 -4 4 4 0 0 1 4 4z"/>
 <path d="m28 29a4 4 0 0 1 -4 4 4 4 0 0 1 -4 -4 4 4 0 0 1 4 -4 4 4 0 0 1 4 4z" style="fill:#fec006"/>
 <path d="M 38,24 A 4,4 0 0 1 34,28 4,4 0 0 1 30,24 4,4 0 0 1 34,20 4,4 0 0 1 38,24 Z" style="opacity:0.2"/>
 <path d="M 38,23 A 4,4 0 0 1 34,27 4,4 0 0 1 30,23 4,4 0 0 1 34,19 4,4 0 0 1 38,23 Z" style="fill:#fec006"/>
</svg>

<svg width="48" height="48" version="1" xmlns="http://www.w3.org/2000/svg">
 <rect transform="matrix(0,-1,-1,0,0,0)" x="-45" y="-44" width="40" height="40" rx="2" ry="2" style="opacity:.2"/>
 <rect transform="matrix(0,-1,-1,0,0,0)" x="-44" y="-44" width="40" height="40" rx="2" ry="2" style="fill:#4f4f4f"/>
 <path d="m6 4c-1.108 0-2 0.892-2 2v1c0-1.108 0.892-2 2-2h36c1.108 0 2 0.892 2 2v-1c0-1.108-0.892-2-2-2h-36z" fill="#fff" style="opacity:.1"/>
 <path d="m14 13c-1.108 0-2 0.892-2 2v20c0 1.108 0.892 2 2 2s2-0.892 2-2v-20c0-1.108-0.892-2-2-2zm10 0c-1.108 0-2 0.892-2 2v20c0 1.108 0.892 2 2 2s2-0.892 2-2v-20c0-1.108-0.892-2-2-2zm10 0c-1.108 0-2 0.892-2 2v20c0 1.108 0.892 2 2 2s2-0.892 2-2v-20c0-1.108-0.892-2-2-2z" opacity=".3"/>
 <path d="m14 22c-1.108 0-2 0.892-2 2v11c0 1.108 0.892 2 2 2s2-0.892 2-2v-11c0-1.108-0.892-2-2-2zm10 8c-1.108 0-2 0.892-2 2v3c0 1.108 0.892 2 2 2s2-0.892 2-2v-3c0-1.108-0.892-2-2-2zm10-5.536c-1.108 0-2 0.892-2 2v8.536c0 1.108 0.892 2 2 2s2-0.892 2-2v-8.536c0-1.108-0.892-2-2-2z" style="fill:#00ab43"/>
 <path d="m18 22a4 4 0 0 1-4 4 4 4 0 0 1-4-4 4 4 0 0 1 4-4 4 4 0 0 1 4 4z" opacity=".2"/>
 <path d="m18 21a4 4 0 0 1-4 4 4 4 0 0 1-4-4 4 4 0 0 1 4-4 4 4 0 0 1 4 4z" style="fill:#828282"/>
 <path d="m28 30a4 4 0 0 1-4 4 4 4 0 0 1-4-4 4 4 0 0 1 4-4 4 4 0 0 1 4 4z" opacity=".2"/>
 <path d="m28 29a4 4 0 0 1-4 4 4 4 0 0 1-4-4 4 4 0 0 1 4-4 4 4 0 0 1 4 4z" style="fill:#828282"/>
 <path d="m38 24a4 4 0 0 1-4 4 4 4 0 0 1-4-4 4 4 0 0 1 4-4 4 4 0 0 1 4 4z" style="opacity:.2"/>
 <path d="m38 23a4 4 0 0 1-4 4 4 4 0 0 1-4-4 4 4 0 0 1 4-4 4 4 0 0 1 4 4z" style="fill:#828282"/>
</svg>
